svg/cards_playing_heart_multiple.svg

<svg xmlns="http://www.w3.org/2000/svg" viewBox="0 0 24 24"><path d="M3 4v18c0 1.1.9 2 2 2h12v-2H5V4zm16-4H9C7.9 0 7 .9 7 2v16c0 1.1.9 2 2 2h10c1.1 0 2-.9 2-2V2c0-1.1-.9-2-2-2m-4.4 13.8-.6.5-.6-.5c-2-1.9-3.4-3.1-3.4-4.6C10 8 11 7 12.2 7c.7 0 1.4.3 1.8.8.4-.5 1.1-.8 1.8-.8C17 7 18 7.9 18 9.2c0 1.5-1.4 2.7-3.4 4.6"/></svg>

<svg xmlns="http://www.w3.org/2000/svg" id="mdi-cards-playing-heart-multiple" viewBox="0 0 24 24"><path d="M3 4V22C3 23.1 3.9 24 5 24H17V22H5V4H3M19 0H9C7.9 0 7 .9 7 2V18C7 19.1 7.9 20 9 20H19C20.1 20 21 19.1 21 18V2C21 .9 20.1 0 19 0M14.6 13.8L14 14.3L13.4 13.8C11.4 11.9 10 10.7 10 9.2C10 8 11 7 12.2 7C12.9 7 13.6 7.3 14 7.8C14.4 7.3 15.1 7 15.8 7C17 7 18 7.9 18 9.2C18 10.7 16.6 11.9 14.6 13.8Z" /></svg>
